X: 1
T: Bothar Na Sop
M: 4/4
L: 1/8
R: reel
K: Gmaj
DGBG AGBG|DGBG AGEG|DGBG ~A3 B|~d3 c B~G3|
DGBG AGBG|DGBG AGEG|~B3 A ~G3 E|DEGA B~G3:|
Bdde ~d3d|(3Bcd gd B~A3|Bdde d2 gd|B2 Ac B~G3|
Bdde ~d3d|(3Bcd gd B~A3|B~d3 edgd|dBAc B~G3|
Bdde ~d3d|(3Bcd gd B~A3|Bdde d2 gd|BdAc B~G3|
BddB ~d3d|(3Bcd gd B~A3|B~d3 edgd|BdAc B~G3||
